X: 38789
T: Sturgeon, The
R: jig
M: 6/8
K: Eminor
|:B2A Bed|BAB EFG|B2 A Bef|gfe dBA:|
|:G3 GAB|A3 ABc|Bcd edc|1 (3Bcd B cBA:|2 Bee e2 f||
geB geB|fdB fdB|gfe dBA|Bee e2 f|
geB geB|fdB def|g2e f2d|efe dBA||

